!!!OTL: HIER STEH ICH AM BERGE
!!!ARE: Europa, Mitteleuropa, Deutschland, Westfalen, Herfurt; Hessen
!!!SCT: E0571A
!!!YEM: Copyright 1995, estate of Helmut Schaffrath.
**kern
*ICvox
*Ivox
*M3/4
*k[f#c#]
*D:
{8d
8e
=1
4f#
4.f#
8f#
=2
8f#
8a
4a}
{8f#
8a
=3
4a
4g
8e
8g
=4
4f#
4r}
{8d
8e
=5
4f#
4.f#
8f#
=6
8f#
8a
4a}
{8f#
8a
=7
4a
4g
8e
8g
=8
4f#
4r}
{4f#
=9
8e
8g#
8b
8dd
4dd
=10
8cc#
8b
4a}
{4e
=11
8e
8g#
8b
8dd
4dd
=12
4.cc#
8b}
{4a
=13
4dd
4cc#
8.b
16b
=14
4b
4a}
{8f#
8a
=15
4a
4g
8e
8g
=16
8f#
8a
4dd}
{4a
=17
4dd
4cc#
8.b
16b
=18
4b
4a}
{8f#
8a
=19
4a
4g
8e
8g
=20
2f#}
==
!!!AGN: Liebes - Lied
!!!ONB: ESAC (Essen Associative Code) Database: ERK1
!!!AMT: simple triple
!!!AIN: vox
!!!EED: Helmut Schaffrath
!!!EEV: 1.0
*-
